build/img/about_methods/card/icons/blue.svg

<svg width="62" height="61" viewBox="0 0 62 61" fill="none" xmlns="http://www.w3.org/2000/svg">
<path fill-rule="evenodd" clip-rule="evenodd" d="M33.28 1.12108C42.2647 1.12287 43.8427 3.20495 50.2017 9.9984C56.4973 16.7242 61.259 25.0013 60.4963 34.463C59.8203 42.8497 57.7421 48.5289 51.5824 53.7695C46.0151 58.5062 41.4315 60.2513 34.308 60.018C27.672 59.8007 21.3908 58.7039 15.7259 54.994C8.01101 49.9417 2.94436 43.7261 1.28685 34.2316C-0.501459 23.9879 0.187607 14.6162 7.47031 7.70477C14.3391 1.18606 24.0799 1.11925 33.28 1.12108Z" fill="#B1DAE7"/>
<path d="M33.3493 20.2809L33.4623 26.755C33.4707 27.2378 32.9406 27.4885 32.6063 27.176L30.7772 25.4408C30.5785 25.2467 30.2702 25.252 30.0784 25.453L28.3109 27.24C27.9878 27.5749 27.4491 27.3319 27.4408 26.8601L27.3278 20.386C27.3225 20.0788 27.5443 19.8335 27.832 19.8284L32.826 19.7413C33.1137 19.7362 33.3439 19.9737 33.3493 20.2809Z" fill="white"/>
<path d="M35.4474 19.7615C35.1486 19.7228 34.8862 20.0018 34.8918 20.32L35.0071 26.9257C35.0217 27.7596 34.5725 28.5248 33.8591 28.8775C33.1456 29.2193 32.3108 29.0911 31.7254 28.5306L30.8161 27.6684C30.6174 27.4743 30.3194 27.4795 30.1173 27.6806L29.2387 28.574C28.8753 28.9535 28.3956 29.1485 27.9126 29.1569C27.6455 29.1616 27.3773 29.1114 27.1183 28.9952C26.3931 28.6676 25.9175 27.9185 25.9029 27.0846L25.7876 20.4789C25.7821 20.1607 25.5101 19.891 25.2129 19.9401C22.3424 20.3744 21.125 22.4701 21.1767 25.4328L21.3683 36.4057C21.4257 39.6976 23.0054 41.8653 26.6018 41.8025L34.8223 41.659C38.4187 41.5962 39.9218 39.3747 39.8643 36.0829L39.6728 25.11C39.6211 22.1473 38.3313 20.0953 35.4474 19.7615ZM36.3014 38.0659L27.5671 38.2184C27.1458 38.2257 26.79 37.8587 26.7821 37.4088C26.7742 36.959 27.1171 36.5798 27.5384 36.5724L36.2727 36.42C36.694 36.4126 37.0498 36.7796 37.0577 37.2295C37.0655 37.6794 36.7227 38.0585 36.3014 38.0659ZM36.2248 33.6767L31.8576 33.753C31.4363 33.7603 31.0805 33.3933 31.0726 32.9435C31.0648 32.4936 31.4076 32.1144 31.8289 32.107L36.196 32.0308C36.6173 32.0235 36.9732 32.3904 36.9811 32.8403C36.9889 33.2902 36.6461 33.6694 36.2248 33.6767Z" fill="white"/>
</svg>

<svg width="62" height="61" fill="none" xmlns="http://www.w3.org/2000/svg"><path fill-rule="evenodd" clip-rule="evenodd" d="M33.28 1.121c8.985.002 10.563 2.084 16.922 8.877 6.295 6.726 11.057 15.003 10.294 24.465-.676 8.387-2.754 14.066-8.914 19.306-5.567 4.737-10.15 6.482-17.274 6.249-6.636-.217-12.917-1.314-18.582-5.024C8.01 49.942 2.944 43.726 1.286 34.232-.5 23.988.189 14.616 7.47 7.705c6.87-6.519 16.61-6.586 25.81-6.584Z" fill="#B1DAE7"/><path d="m33.35 20.28.112 6.475c.009.483-.521.733-.856.421l-1.829-1.735a.486.486 0 0 0-.699.012l-1.767 1.787c-.323.335-.862.092-.87-.38l-.113-6.474c-.005-.307.216-.552.504-.558l4.994-.087c.288-.005.518.233.523.54Z" fill="#fff"/><path d="M35.447 19.762c-.298-.04-.56.24-.555.558l.115 6.606c.015.834-.434 1.599-1.148 1.952a1.88 1.88 0 0 1-2.134-.347l-.909-.863a.486.486 0 0 0-.699.013l-.878.893a1.875 1.875 0 0 1-2.12.421c-.726-.327-1.201-1.076-1.216-1.91l-.115-6.606c-.006-.318-.278-.588-.575-.539-2.87.434-4.088 2.53-4.036 5.493l.191 10.973c.058 3.292 1.637 5.46 5.234 5.397l8.22-.144c3.597-.063 5.1-2.284 5.042-5.576l-.191-10.973c-.052-2.963-1.342-5.015-4.226-5.348Zm.854 18.304-8.734.152c-.421.008-.777-.36-.785-.81-.008-.449.335-.828.756-.836l8.735-.152c.421-.007.777.36.785.81.008.45-.335.829-.757.836Zm-.076-4.39-4.367.077c-.422.007-.777-.36-.785-.81-.008-.45.335-.829.756-.836l4.367-.076c.421-.008.777.36.785.81.008.45-.335.828-.756.836Z" fill="#fff"/></svg>
